X:8
T:La Marseillaise
T:FRENCH NATIONAL HYMN
T:(Based on the Official French Version)
%%LineSep 20pt
% Four-part piano arrangement for standard notation.
C:/Rouget de L'Isle (Arranged by Henry S. Sawyer)
S:Source "The One Hundred and One Best Songs" - The Cable Company - 1919 - Chicago, Illinois
M:4/4
L:1/8
Q:1/8=168
%%staves [(1 2) (3 4)]
K:G
V:1 clef=treble
"^Marziale"D/ D > D | G2 G2 A2 A2 | (d3 B) G > G B > G | E2 c4 A > F |
w:1.~Ye sons of France, a-wake to glo\-* ry! Hark! hark! what myr-iads bid you
w:2.~With lux-u-ry and pride sur-round\-* ed The vile in-sa-tiate des-pots
w:3.~O Lib-er-ty! can man re-sign* thee? Once hav-ing felt thy gen-'rous
V:2 clef=treble
D/ D > D | D2 D2 D2 F2 | G4 G > D D > D | C2 E4 C > C |
V:3 clef=bass
%%MIDI transpose -24
d/ d > d | b2 b2 a2 c'2 | (b3 d') b > b g > g | g2 a4 f > a |
V:4 clef=bass
%%MIDI transpose -24
d/ d > d | g2 g2 f2 d2 | G4 G > G G > B | c2 A4 d > d |
V:1
G4- G z/ G/ G > A | B2 B2 B2 c>B | B2 A2 z > A A > B | c2 c2
w:rise!* Your chil-dren, wives, and grand-sires* hoar-y, Be-hold their tears and
w:dare,* Their thirst for gold and pow'r un\-* bound-ed, To mete and vend the
w:flame,* Can dun-geon bolts and bars con\-* fine thee, Or whips thy no-ble
V:2
B,4- B, z/ G/ G > F | G2 G2 G2 A>G | G2 F2 z > F F > F | F2 F2
V:3
g4- g z/ d'/ d' > d' | d'2 d'2 d'2 d'2 | d'2 d'2 z > c' c' > b | a2 a2
V:4
G4- G z/ b/ b > a | g2 g2 g2 f>g | d2 d2 z > d d > d | d2 d2
V:1
c2 d>c | B4 z > d d > d | d2 B>G d2 B>G | D4- D z/ D/ D > F |
w:hear their* cries, Be-hold their tears and* hear their* cries!* Shall hate-ful
w:light and* air, To mete and vend the* light and* air!* Like beasts of
w:spir-it* tame? Or whips thy no-ble* spir-it* tame?* Too long the
V:2
F2 F2 | G4 z > d d > d | d2 B>G d2 B>G | D4-D z/ D/ D > D |
V:3
a2 a>d' | d'4 z > d' d' > d' | d'2 b>g d'2 b>g | d4-d z/ f/ f > a |
V:4
d2 d2 | g4 z > {d}d' {d}d' > {d}d' | {d}d'2 b>g {d}d'2 b>g | d4-d z/ d/ d > d |
V:1
A2 A2 c2 A>F | A2 G2 z G =F =F | E3 G G2 F>G | A6 z A |
w:ty-rants mis-chief* breed-ing, With hire-ling hosts, a ruf-fian* band, Af\-
w:bur-den would they* load us, Like gods would bid their slaves a\-* dore; But
w:world has wept, be\-* wail-ing The blood-stain'd sword our con-qu'rors* wield; But
V:2
D2 D2 D2 D2 | D2 D2 z D D D | C3 E E2 E2 | F6 z F |
V:3
f2 f2 a2 c'>a | c'2 b2 z b g g | g3 c' ^c'2 ^c'2 | d'6 z d' |
V:4
d2 d2 d2 d2 | g2 g2 z G B B | c3 c A2 a2 | d6 z d |
V:1
_B3 _B _B _B c d | A4 z2 _B>A | G3 G G _B A > G | G2 F4 z3/2
w:fright and des-o-late the land While* peace and lib-er-ty lie bleed-ing?
w:man is man, and who is more? Then* shall they lon-ger lash and goad us?
w:free-dom is our sword and shield, And* all their arts are un-a-vail-ing!
V:2
G3 G G G A _B | F4 z2 F2 | D3 D D D D > D | D2 D4 z3/2
V:3
d'3 d' d' d' d' d' | d'4 z2 d'>c' | _b3 _b _b d' c' > _b | _b2 a4 z3/2
V:4
g3 g g g g g | d4 z2 d2 | g3 g g g g > g | d2 d4 z3/2
V:1
"^{__REFRAIN"d/ | d4- d > d B > G | A6 z > d | d4- d > d B > G | A4- A z D2 | G6 A2 |
w:
w:To arms,* to arms, ye brave! Th'a-veng\-* ing sword un-sheathe!* March on! march
V:2
d/ | d4- d > d B > G | D6 z > d | d4- d > d B > G | D4- D z D2 | D6 F2 |
V:3
d'/ | d'4- d' > d' b > g | f6 z > d' | d'4- d' > d' b > g | f4- f z d'2 | b6 d'2 |
V:4
{d}d'/ | {d}d'4- {d}d' > {d}d' b > g | d6 z > {d}d' | {d}d'4- {d}d' > {d}d' b > g | d4- d z d2 | g6 d2 |
V:1
B6 z2 | c4 d2 e2 | A4- A z e2 | d4- d > B c > A | G4- G z/ |]
w:
w:on! all hearts re-solved* On lib\-* er-ty or death!
V:2
G6 z2 | G4 G2 G2 | F4-F z F2 | G4- G > G F > F | D4- D z/ |]
V:3
d'6 z2 | c'4 b2 _b2 | a4- a z c'2 | b4- b> d' d' > c' | b4- b z/ |]
V:4
g6 z2 | e4 d2 ^c2 | d4- d z d2 | g4- g > g d > d | G4-G z/ |]

